!!!OTL: Et wolt sech e Bauer seng Duechter bestueden (3-31), S. 78
!!!id: K1165
**kern
*clefG2
*k[b-]
*F:
{8c
=1
8f
8f
8a
=2
8dd
8cc
8a
=3
8b-
8g
8g
=4
8a
8a}
=5
{8f
=6
4f
8a
=7
4cc
8a
=8
4b-
8g
=9
4a}
=10
{8c
=11
4f
16f
16a
=12
8.cc
16cc
8cc
=13
4f}
=14
{16f
16f
=15
8a
8a
16g
16g
=16
4f}
=17
{8c
=18
4f
16f
16a
=19
8.cc
16cc
8cc
=20
4f}
==
*-
!!!minrhy: 16
!!!meters: 3/8 ]  ZZ[5
!!!cut: Et wolt sech e Bauer seng Duechter bestueden (3-31), S. 78
!!!reg: Luxemburg
!!!trd: KINTZELE, Guillaume: An der Ucht, Bd. 3 Luxemburg 1928
!!!rhy1: X_  X_X_X_  X_X_X_  X_X_X_  X_X_   (x2)
!!!rhy2: X_  X__X_  X__X_  X__X_  X__
!!!key: K1165  16  F 3/8 ]  ZZ[5
!!!mod: SECHSTONSKALA DUR ?]  AMBITUS[9
!!!kad: 33111
!!!akz: 1643_1543_151_31_151_
!!!fot: 'a__aw_b__c__b__
!!!for: 'a__b__c__d__c__
!!!fok: '^a_^a_^a_^__^a_
!! PHRAS[AUFTAKTIG]
!!!fkt: Heirat, Mitgift
!! KINTZELE
!! PR[52] 2K[4] 2G[15] 3K[4] 3G[0] 4A[4] 4Ü[0] 5A[0] 6K[0] 6G[0]
!! 7K[0] 7G[0] 8A[0] MEHR[0] SI[26] ABS[27] SR[19] SP[7]
!! ST[8] 2k[4] 2g[15] 3k[4] 3g[0] 4d[0] 4ü[0] 5d[0] 6k[0] 6g[0]
!! 7k[0] 7g[0] 8d[0] mehr[0] si[22] dm[+4] sr[19] sp[4]
!! 1F[13] 2F[67] 3F[7] 4F[0] LF[0] 2P[13] 3P[0] 4P[0] TRI[0] DF[4] AB[30]
!! TF[0] U3K[0] U3[0] U4[0] U4Ü[0] U5[4] U6K[0] U6[0] U7K[0] U7[0]
!! N1[7] N2K[0] N2[18] N3K[0] N3[18] N4[14] N4Ü[0] N5[25] N6K[0] N6[11]
!!!n7k: 0] N7[0] O1[4] O2K[0] O2[0] O3K[0] O3[0] HÖ[0
